X:1
T:68
L:1/8
M:3/8
K:Gmin
V:1 treble nm="Piano" snm="Pno."
V:1
 G>AB | A/c/B/A/G/^F/ | G>^FG/A/ | D3 | C>DE/G/ | B/c/B/A/G/e/ | d>cB/G/ | A3 | d>ed/B/ | G G2 | %10
 c>BA/G/ | E>D^C/D/ | .E.C.B | .A.^F.e | d>cA/^F/ | G3 |] %16

